X:168
T:Lord Anson for ever. JJo.168
B:J.Johnson Choice Collection Vol 8 1758
Z:vmp.Simon Wilson 2013 www.village-music-project.org.uk
Z:Dance added by John Chambers 2017
M:C|
L:1/4
%Q:1/2=100
K:G
   g | "_Brisk"\
GGGA | B/A/B/c/Bc | ddde/f/ | g/f/g/a/gd |\
edgd | edgd | cBAG | A2D :|
|: d |\
DDDE | F/E/F/G/FG | Aedc | Tc2B[gA] |\
GBAg | GBAe | dcBA | G2G, :|
%%begintext align
%% First Man set and turn the 2d Wo. his
%% Partner the same cast off and turn, cast off
%% again and turn below the 3d Cu :|: Right
%% and Left 6 round |: hands  6 round |.
%% lead to the top, foot it and cast off :|:
%%endtext
